!!!!SEGMENT: pl-kk--kk-i-1--024_anonim--congaudent-angelorum.krn
!!!cenid: 15xx:737
!!!COM: Anonim
!!!COM-rismID: pe30004985
!!!CDT:
!!!CNT:
!!!OTL: Congaudent angelorum
!!!PDT:
!!!AGN:
!!!SMS-siglum: PL-Kk
!!!SMS-shelfmark: Kk.I.1
!!!SMS-shelfwork: 024 W
!!!SMS-variant:
!!!SMS-altvar:
!!!NIFC-rismSourceID: 300257954
!!!NIFC-rismChildID: 300257978
!!!NIFC-islandoraID: pl-kk:1
!!!URL-pdf-islandora: https://repozytorium.nifc.pl/islandora/object/pl-kk%3A1/datastream/PDF/view
!!!URL-scan: https://polish.musicsources.pl/pl/lokalizacje/galeria/rekopisy/5736 @EN{Scan on Polish Music Sources Website} @PL{Skany w portalu Dziedzictwo Muzyki Polskiej w otwartym dostępie}
!!!ONB-nifc: UWAGA: Cantus (s. 110r-112r, skan 0112-0114), Altus (s. 105r-107r, skan 0298-0300), Tenor (s. 96v-98r, skan 0487-0488), Bassus (brak).
!!!AIN: 1 alto 1 bass 1 soprn 1 tenor
!!!key: d
**kern	**text	**text	**kern	**text	**text	**kern	**text	**text	**kern	**text	**text
*part4	*part4	*part4	*part3	*part3	*part3	*part2	*part2	*part2	*part1	*part1	*part1
*staff4	*staff4	*staff4	*staff3	*staff3	*staff3	*staff2	*staff2	*staff2	*staff1	*staff1	*staff1
*I"BASSVS	*	*	*I"TENOR	*	*	*I"ALTVS	*	*	*I"CANTVS	*	*
*I'B	*	*	*I'T	*	*	*I'A	*	*	*I'C	*	*
*Ibass	*	*	*Itenor	*	*	*Ialto	*	*	*Isoprn	*	*
*ICvox	*	*	*ICvox	*	*	*ICvox	*	*	*ICvox	*	*
*clefF4	*	*	*clefC4	*	*	*clefC4	*	*	*clefC3	*	*
*k[]	*	*	*k[]	*	*	*k[]	*	*	*k[]	*	*
*d:	*	*	*d:	*	*	*d:	*	*	*d:	*	*
*M2/1	*	*	*M2/1	*	*	*M2/1	*	*	*M2/1	*	*
*met(C|)	*	*	*met(C|)	*	*	*met(C|)	*	*	*met(C|)	*	*
=1-	=1-	=1-	=1-	=1-	=1-	=1-	=1-	=1-	=1-	=1-	=1-
*	*	*	*xywh-#487:1770,2066,3835,845	*	*	*xywh-#298:6158,2182,4144,861	*	*	*xywh-#112:6570,2161,3678,892	*	*
!LO:TX:t=P:problem=wg RISM "Być może brak głosu basowego.", ale fragment jest na skanach 0663-0664	!	!	!	!	!	!	!	!	!	!	!
0ryy	.	.	1G	Con-	.	1d	Con-	.	1g	Con-	.
.	.	.	1G	-gau-	.	1c	-gau-	.	1e	.	.
=2-	=2-	=2-	=2-	=2-	=2-	=2-	=2-	=2-	=2-	=2-	=2-
0ryy	.	.	1A	-de(n)t	.	2A/	-de(n)t	.	2c/	-gau-	.
.	.	.	.	.	.	1d	an-	.	2d\	.	.
.	.	.	1G	an-	.	.	.	.	1e	-dent	.
.	.	.	.	.	.	2c\	-ge-	.	.	.	.
=3-	=3-	=3-	=3-	=3-	=3-	=3-	=3-	=3-	=3-	=3-	=3-
0ryy	.	.	1A	-ge-	.	2d\	-lo-	.	2f\	.	.
.	.	.	.	.	.	2D/	-ru(m),	.	1d	an-	.
.	.	.	1G	-lo-	.	2r	.	.	.	.	.
.	.	.	.	.	.	2G/	.	.	2c/	-ge-	.
=4-	=4-	=4-	=4-	=4-	=4-	=4-	=4-	=4-	=4-	=4-	=4-
0ryy	.	.	1F	-ru(m)	.	2.A/	cho-	.	2d\	-lo-	.
.	.	.	.	.	.	.	.	.	2.d\	-rum	.
.	.	.	.	.	.	4G/	-ri	.	.	.	.
.	.	.	1A	cho-	.	2F/	.	.	.	.	.
.	.	.	.	.	.	.	.	.	4e\	.	.
.	.	.	.	.	.	4E/	.	.	4f\	.	.
.	.	.	.	.	.	4D/	.	.	4g\	.	.
=5-	=5-	=5-	=5-	=5-	=5-	=5-	=5-	=5-	=5-	=5-	=5-
*	*	*	*	*	*	*	*	*	*custos:d	*	*
0ryy	.	.	1c	-ri	.	2E/	.	.	1a	.	.
.	.	.	.	.	.	2F/	.	.	.	.	.
*	*	*	*	*	*	*custos:B	*	*	*	*	*
*	*	*	*	*	*	*	*	*	*xywh-#112:6089,2891,4229,973	*	*
!	!	!	!	!	!	!	!	!	!LO:LB:g=original	!	!
.	.	.	1B	glo-	.	2G/	.	.	2.d\	cho-	.
*	*	*	*	*	*	*xywh-#298:6124,2903,4052,842	*	*	*	*	*
!	!	!	!	!	!	!LO:LB:g=original	!	!	!	!	!
.	.	.	.	.	.	2B\	.	.	.	.	.
.	.	.	.	.	.	.	.	.	4e\	.	.
=6-	=6-	=6-	=6-	=6-	=6-	=6-	=6-	=6-	=6-	=6-	=6-
0ryy	.	.	1c	-ri-	.	2A/	.	.	2f\	-ri	.
.	.	.	.	.	.	2G/	.	.	1g	glo-	.
.	.	.	1A	-o-	.	2d\	glo-	.	.	.	.
.	.	.	.	.	.	1d\	-ri-	.	2f\	-ri-	.
=7-	=7-	=7-	=7-	=7-	=7-	=7-	=7-	=7-	=7-	=7-	=7-
0ryy	.	.	1G	-ſe	.	.	.	.	2g\	-o-	.
.	.	.	.	.	.	2c\	-o-	.	2e\	-ſe	.
*	*	*	*custos:G	*	*	*	*	*	*	*	*
.	.	.	1F	vir-	.	2d\	-ſe	.	1f	.	.
.	.	.	.	.	.	2.d\	uir-	.	.	.	.
!	!	!	!LO:LB:g=original	!	!	!	!	!	!	!	!
=8-	=8-	=8-	=8-	=8-	=8-	=8-	=8-	=8-	=8-	=8-	=8-
*	*	*	*xywh-#487:1448,2825,4198,862	*	*	*	*	*	*	*	*
0ryy	.	.	1G	-gi-	.	.	.	.	1d	.	.
.	.	.	.	.	.	4c\	-gi-	.	.	.	.
.	.	.	.	.	.	4B\	.	.	.	.	.
.	.	.	.	.	.	4A/	.	.	.	.	.
.	.	.	[1Gl	-ni,	.	4G/	.	.	2r	.	.
.	.	.	.	.	.	4A/	.	.	.	.	.
.	.	.	.	.	.	2B\	.	.	2.g\	uir-	.
=9-	=9-	=9-	=9-	=9-	=9-	=9-	=9-	=9-	=9-	=9-	=9-
0ryy	.	.	0G_	.	.	2.c\	.	.	.	.	.
.	.	.	.	.	.	.	.	.	4f\	.	.
.	.	.	.	.	.	.	.	.	4e\	-gi-	.
.	.	.	.	.	.	4d\	.	.	4d\	-ni	.
.	.	.	.	.	.	2e\	.	.	2c/	.	.
.	.	.	.	.	.	2c\	.	.	2e\	.	.
=10-	=10-	=10-	=10-	=10-	=10-	=10-	=10-	=10-	=10-	=10-	=10-
*	*	*	*	*	*	*custos:e	*	*	*custos:g	*	*
0ryy	.	.	0G]	.	.	0Bl	-ni	.	0dl	.	.
!	!	!	!	!	!	!LO:PB:g=original	!	!	!LO:PB:g=original	!	!
=11-	=11-	=11-	=11-	=11-	=11-	=11-	=11-	=11-	=11-	=11-	=11-
*	*	*	*	*	*	*xywh-#299:1415,645,4138,904	*	*	*xywh-#113:1365,561,4074,917	*	*
0ryy	.	.	1c	Quę	.	1e	Quae	.	1g	Que	.
.	.	.	1B	ſi-	.	2d\	.	.	1g	ſi-	.
.	.	.	.	.	.	2B\	ſi-	.	.	.	.
=12-	=12-	=12-	=12-	=12-	=12-	=12-	=12-	=12-	=12-	=12-	=12-
0ryy	.	.	1A	-ne	.	2c\	-ne	.	2a\	.	.
.	.	.	.	.	.	1d	ui-	.	2f\	-ne	.
*	*	*	*	*	*	*	*	*	*lig	*	*
.	.	.	1d	ui-	.	.	.	.	1f	ui-	.
.	.	.	.	.	.	4c\	-ri-	.	.	.	.
.	.	.	.	.	.	4B\	-li	.	.	.	.
=13-	=13-	=13-	=13-	=13-	=13-	=13-	=13-	=13-	=13-	=13-	=13-
0ryy	.	.	1c	-ri-	.	1A	.	.	1e	.	.
*	*	*	*	*	*	*	*	*	*Xlig	*	*
.	.	.	1G	-li	.	2r	.	.	2d/	-ri-	.
.	.	.	.	.	.	2d\	com-	.	1g\	-li	.
=14-	=14-	=14-	=14-	=14-	=14-	=14-	=14-	=14-	=14-	=14-	=14-
0ryy	.	.	1c	com-	.	2e\	.	.	.	.	.
.	.	.	.	.	.	2c\	.	.	4f\	com-	.
.	.	.	.	.	.	.	.	.	4e\	.	.
.	.	.	1B	-mix-	.	4d\	-mix-	.	1d	-(m)ix-	.
.	.	.	.	.	.	4c\	-ti-	.	.	.	.
.	.	.	.	.	.	4B/	-o-	.	.	.	.
.	.	.	.	.	.	4A/	-ne	.	.	.	.
=15-	=15-	=15-	=15-	=15-	=15-	=15-	=15-	=15-	=15-	=15-	=15-
0ryy	.	.	1c	-ti-	.	2G/	.	.	2e\	-ti-	.
.	.	.	.	.	.	2G/	.	.	2g\	-o-	.
.	.	.	1A	-o-	.	2.d\	ge-	.	2f\	-ne	.
.	.	.	.	.	.	.	.	.	1d\	.	.
.	.	.	.	.	.	4c\	.	.	.	.	.
=16-	=16-	=16-	=16-	=16-	=16-	=16-	=16-	=16-	=16-	=16-	=16-
0ryy	.	.	1G	-ne	.	4B\	.	.	.	.	.
.	.	.	.	.	.	4A\	.	.	.	.	.
*	*	*	*	*	*	*custos:B	*	*	*	*	*
.	.	.	.	.	.	1c	.	.	2c/	ge-	.
.	.	.	1F	ge-	.	.	.	.	2d/	.	.
*	*	*	*	*	*	*xywh-#299:1404,1439,4179,776	*	*	*	*	*
!	!	!	!	!	!	!LO:LB:g=original	!	!	!	!	!
.	.	.	.	.	.	2B\	.	.	2f\	.	.
=17-	=17-	=17-	=17-	=17-	=17-	=17-	=17-	=17-	=17-	=17-	=17-
0ryy	.	.	1G	-nu-	.	1c	-nu-	.	1e	-nu-	.
*	*	*	*custos:F	*	*	*	*	*	*custos:f	*	*
.	.	.	1Gl	-it	.	1Bl	-it,	.	1dl	-it	.
!	!	!	!LO:PB:g=original	!	!	!	!	!	!LO:LB:g=original	!	!
=18-	=18-	=18-	=18-	=18-	=18-	=18-	=18-	=18-	=18-	=18-	=18-
*	*	*	*xywh-#487:5948,703,4158,730	*	*	*	*	*	*xywh-#113:1365,1382,4122,848	*	*
0ryy	.	.	1F	NAm	.	1c	Nam	.	1f	Nam	.
.	.	.	1A	ip-	.	1c	ip-	.	2f\	.	.
.	.	.	.	.	.	.	.	.	2e\	ip-	.
=19-	=19-	=19-	=19-	=19-	=19-	=19-	=19-	=19-	=19-	=19-	=19-
0ryy	.	.	1c	-(s)a	.	2G/	-ſa	.	2.e\	-ſa	.
.	.	.	.	.	.	2c\	le-	.	.	.	.
.	.	.	.	.	.	.	.	.	4f\	le-	.
.	.	.	1G	le-	.	2.B\	-ta-	.	4g\	.	.
.	.	.	.	.	.	.	.	.	4a\	.	.
.	.	.	.	.	.	.	.	.	1g\	.	.
.	.	.	.	.	.	4c\	.	.	.	.	.
=20-	=20-	=20-	=20-	=20-	=20-	=20-	=20-	=20-	=20-	=20-	=20-
0ryy	.	.	1A	-ta-	.	4d\	.	.	.	.	.
.	.	.	.	.	.	4e\	.	.	.	.	.
.	.	.	.	.	.	1d	.	.	2f\	-ta-	.
.	.	.	1G	-tur	.	.	.	.	2g\	-tur	.
.	.	.	.	.	.	2c\	.	.	2e\	q(uod)	.
=21-	=21-	=21-	=21-	=21-	=21-	=21-	=21-	=21-	=21-	=21-	=21-
0ryy	.	.	1d	q(uod)	.	2d\	-tur	.	2f\	coe-	.
.	.	.	.	.	.	2B\	q(uod)	.	2.g\	-li	.
.	.	.	1c	coe-	.	2G/	ce-	.	.	.	.
.	.	.	.	.	.	.	.	.	4e\	.	.
.	.	.	.	.	.	1A\	-li-	.	1a\	iam	.
=22-	=22-	=22-	=22-	=22-	=22-	=22-	=22-	=22-	=22-	=22-	=22-
0ryy	.	.	1A	-li	.	.	.	.	.	.	.
.	.	.	.	.	.	2.c\	-ia(m)	.	4g\	.	.
.	.	.	.	.	.	.	.	.	4f\	.	.
.	.	.	1c	iam	.	.	.	.	1e	.	.
.	.	.	.	.	.	4B\	.	.	.	.	.
.	.	.	.	.	.	4A/	con-	.	.	.	.
*	*	*	*	*	*	*custos:F	*	*	*	*	*
.	.	.	.	.	.	4G/	.	.	.	.	.
!	!	!	!	!	!	!LO:LB:g=original	!	!	!	!	!
=23-	=23-	=23-	=23-	=23-	=23-	=23-	=23-	=23-	=23-	=23-	=23-
*	*	*	*	*	*	*	*	*	*custos:f	*	*
*	*	*	*	*	*	*xywh-#299:1433,2192,4149,776	*	*	*	*	*
0ryy	.	.	1B	con-	.	2F/	.	.	2d/	con-	.
*	*	*	*	*	*	*	*	*	*xywh-#113:1365,2160,4150,778	*	*
!	!	!	!	!	!	!	!	!	!LO:LB:g=original	!	!
.	.	.	.	.	.	2F/	-ſpi-	.	2.f\	-ſpi-	.
.	.	.	1c	-ſpi-	.	1G	-ca-	.	.	.	.
.	.	.	.	.	.	.	.	.	4e\	.	.
.	.	.	.	.	.	.	.	.	1e\	.	.
=24-	=24-	=24-	=24-	=24-	=24-	=24-	=24-	=24-	=24-	=24-	=24-
0ryy	.	.	1A	-ca-	.	2.A/	-tur	.	.	.	.
.	.	.	.	.	.	.	.	.	2d\	-ca-	.
.	.	.	.	.	.	4B\	.	.	.	.	.
.	.	.	1G	-t(ur)	.	2c\	.	.	1e	-tur	.
.	.	.	.	.	.	2B\	.	.	.	.	.
=25-	=25-	=25-	=25-	=25-	=25-	=25-	=25-	=25-	=25-	=25-	=25-
0ryy	.	.	1F	pri(n)-	.	2.d\	.	.	1f	.	.
.	.	.	.	.	.	4c\	prin-	.	.	.	.
.	.	.	1G	-ci-	.	4B\	.	.	2e\	prin-	.
.	.	.	.	.	.	4A/	.	.	.	.	.
.	.	.	.	.	.	4G/	.	.	1e\	-ci-	.
.	.	.	.	.	.	4F/	.	.	.	.	.
=26-	=26-	=26-	=26-	=26-	=26-	=26-	=26-	=26-	=26-	=26-	=26-
*	*	*	*custos:G	*	*	*	*	*	*	*	*
0ryy	.	.	[0G\l	-pe(m)	.	2.E/	.	.	.	.	.
.	.	.	.	.	.	.	.	.	4d/	.	.
.	.	.	.	.	.	4F/	.	.	4c/	.	.
.	.	.	.	.	.	2G/	.	.	2B/	-pem,	.
.	.	.	.	.	.	2E/	-ci-	.	2c/	.	.
=27-	=27-	=27-	=27-	=27-	=27-	=27-	=27-	=27-	=27-	=27-	=27-
0ryy	.	.	0G]	.	.	0Dl	-pem,	.	0Bl\	.	.
!	!	!	!LO:LB:g=original	!	!	!	!	!	!	!	!
=28-	=28-	=28-	=28-	=28-	=28-	=28-	=28-	=28-	=28-	=28-	=28-
*	*	*	*xywh-#487:5908,1404,4193,805	*	*	*	*	*	*	*	*
0ryy	.	.	1G	Quam	.	1d	Qua(m)	.	1g	Quam	.
*	*	*	*	*	*	*custos:A	*	*	*	*	*
.	.	.	1d	ce-	.	2A/	ce-	.	2f\	.	.
*	*	*	*	*	*	*xywh-#299:1435,2878,4132,863	*	*	*	*	*
!	!	!	!	!	!	!LO:LB:g=original	!	!	!	!	!
.	.	.	.	.	.	2.A/	-le-	.	2.a\	.	.
=29-	=29-	=29-	=29-	=29-	=29-	=29-	=29-	=29-	=29-	=29-	=29-
0ryy	.	.	1c	-le-	.	.	.	.	.	.	.
.	.	.	.	.	.	4B\	.	.	4g\	.	.
.	.	.	.	.	.	1c	.	.	4e\	ce-	.
.	.	.	.	.	.	.	.	.	4f\	-le-	.
*	*	*	*	*	*	*	*	*	*custos:g	*	*
.	.	.	1d	-bris	.	.	.	.	2g\	-bris	.
*	*	*	*	*	*	*	*	*	*xywh-#113:1386,2883,4157,806	*	*
!	!	!	!	!	!	!	!	!	!LO:LB:g=original	!	!
.	.	.	.	.	.	2B\	-bris	.	2g\	an-	.
=30-	=30-	=30-	=30-	=30-	=30-	=30-	=30-	=30-	=30-	=30-	=30-
0ryy	.	.	1d	an-	.	2.A/	an-	.	1f	-ge-	.
.	.	.	.	.	.	4B\	.	.	.	.	.
.	.	.	1c	-ge-	.	2c\	-ge-	.	2e\	-lis	.
.	.	.	.	.	.	4A/	-lis	.	2e\	Ma-	.
.	.	.	.	.	.	4B/	.	.	.	.	.
=31-	=31-	=31-	=31-	=31-	=31-	=31-	=31-	=31-	=31-	=31-	=31-
0ryy	.	.	1A	-lis	.	4c\	.	.	1e	-ri-	.
.	.	.	.	.	.	4d\	.	.	.	.	.
.	.	.	.	.	.	2e\	Ma-	.	.	.	.
.	.	.	1F	Ma-	.	1d	-ri-	.	1f	-a	.
=32-	=32-	=32-	=32-	=32-	=32-	=32-	=32-	=32-	=32-	=32-	=32-
0ryy	.	.	1A	-ri-	.	2c\	-a	.	2e\	Ie-	.
.	.	.	.	.	.	1e	Ie-	.	1a	-ſu	.
.	.	.	1c	-a	.	.	.	.	.	.	.
.	.	.	.	.	.	4d\	-ſu	.	4g\	ma-	.
.	.	.	.	.	.	4c\	.	.	4f\	.	.
=33-	=33-	=33-	=33-	=33-	=33-	=33-	=33-	=33-	=33-	=33-	=33-
0ryy	.	.	1G	Ie-	.	1B	.	.	1e	-ter	.
.	.	.	1c	-ſu	.	1A	.	.	2e\	.	.
.	.	.	.	.	.	.	.	.	2.f\	cre-	.
=34-	=34-	=34-	=34-	=34-	=34-	=34-	=34-	=34-	=34-	=34-	=34-
*	*	*	*	*	*	*lig	*	*	*	*	*
0ryy	.	.	1A	ma-	.	1F	ma-	.	.	.	.
.	.	.	.	.	.	.	.	.	4e\	.	.
.	.	.	.	.	.	.	.	.	1d	.	.
.	.	.	1G	-ter	.	1G	.	.	.	.	.
.	.	.	.	.	.	.	.	.	2c/	-di-	.
*	*	*	*	*	*	*Xlig	*	*	*	*	*
=35-	=35-	=35-	=35-	=35-	=35-	=35-	=35-	=35-	=35-	=35-	=35-
*	*	*	*	*	*	*custos:B	*	*	*	*	*
0ryy	.	.	1F	cre-	.	1A	-ter	.	1d	-t(ur)	.
*	*	*	*	*	*	*xywh-#299:6128,756,4132,828	*	*	*	*	*
!	!	!	!	!	!	!LO:PB:g=original	!	!	!	!	!
.	.	.	1G	-di-	.	2.B\	.	.	2.d/	cre-	.
.	.	.	.	.	.	4c\	cre-	.	4c/	.	.
=36-	=36-	=36-	=36-	=36-	=36-	=36-	=36-	=36-	=36-	=36-	=36-
*	*	*	*custos:D	*	*	*	*	*	*custos:e	*	*
0ryy	.	.	0Gl	-tur	.	2d\	.	.	2B/	[[-di-]]	.
*	*	*	*	*	*	*	*	*	*xywh-#113:6070,707,4178,855	*	*
!	!	!	!	!	!	!	!	!	!LO:PB:g=original	!	!
.	.	.	.	.	.	2c\	-di-	.	2e\	-di-	.
.	.	.	.	.	.	1Bl	-tur;	.	1dl	-tur	.
!	!	!	!LO:LB:g=original	!	!	!	!	!	!	!	!
=37-	=37-	=37-	=37-	=37-	=37-	=37-	=37-	=37-	=37-	=37-	=37-
*	*	*	*lig	*	*	*	*	*	*	*	*
*	*	*	*xywh-#487:5948,2187,4210,805	*	*	*	*	*	*	*	*
0ryy	.	.	1D	Qua	.	1A	Qua	.	2d\	Qua	.
.	.	.	.	.	.	.	.	.	2f\	.	.
.	.	.	1A	.	.	2.c\	.	.	2e\	glo-	.
.	.	.	.	.	.	.	.	.	2.a\	-ri-	.
.	.	.	.	.	.	4B\	glo-	.	.	.	.
*	*	*	*Xlig	*	*	*	*	*	*	*	*
=38-	=38-	=38-	=38-	=38-	=38-	=38-	=38-	=38-	=38-	=38-	=38-
0ryy	.	.	1c	glo-	.	4c\	.	.	.	.	.
.	.	.	.	.	.	4d\	.	.	4g\	-a	.
.	.	.	.	.	.	2.e\	.	.	1g	.	.
.	.	.	1A	-ri-	.	.	.	.	.	.	.
.	.	.	.	.	.	4d\	.	.	.	.	.
.	.	.	.	.	.	1d\	.	.	2f\	.	.
=39-	=39-	=39-	=39-	=39-	=39-	=39-	=39-	=39-	=39-	=39-	=39-
0ryy	.	.	1G	-a	.	.	.	.	1g	.	.
.	.	.	.	.	.	2c\	-ri-	.	.	.	.
.	.	.	1A	in	.	2d\	-a	.	2f\	in	.
.	.	.	.	.	.	2c\	in	.	1e\	.	.
=40-	=40-	=40-	=40-	=40-	=40-	=40-	=40-	=40-	=40-	=40-	=40-
0ryy	.	.	1A	coe-	.	2.A/	coe-	.	.	.	.
.	.	.	.	.	.	.	.	.	2d/	coe-	.
*	*	*	*	*	*	*custos:c	*	*	*	*	*
.	.	.	.	.	.	4B\	.	.	.	.	.
*	*	*	*	*	*	*xywh-#299:6140,1468,4132,852	*	*	*	*	*
!	!	!	!	!	!	!LO:LB:g=original	!	!	!	!	!
.	.	.	1G	-lis	.	2c\	.	.	1e	-lis	.
.	.	.	.	.	.	2.B\	.	.	.	.	.
=41-	=41-	=41-	=41-	=41-	=41-	=41-	=41-	=41-	=41-	=41-	=41-
2ryy	.	.	1c	iſ-	.	.	.	.	1e	i-	.
.	.	.	.	.	.	4A/	.	.	.	.	.
*xywh-#663:5894,676,4278,847	*	*	*	*	*	*	*	*	*	*	*
2AA/	i-	.	.	.	.	1A	.	.	.	.	.
2E\	-ſta	.	1B	-ta	.	.	.	.	2e\	-ſta	.
2E\	uir-	.	.	.	.	2G/	-lis	.	2e\	uir-	.
=42-	=42-	=42-	=42-	=42-	=42-	=42-	=42-	=42-	=42-	=42-	=42-
*	*	*	*	*	*	*	*	*	*custos:f	*	*
2.F\	-go	.	1A	uir-	.	4c\	i-	.	2c/	-go	.
.	.	.	.	.	.	4B\	.	.	.	.	.
*	*	*	*	*	*	*	*	*	*xywh-#113:6063,1451,4122,799	*	*
!	!	!	!	!	!	!	!	!	!LO:LB:g=original	!	!
.	.	.	.	.	.	4A/	.	.	2.f\	.	.
4E/	.	.	.	.	.	4G/	.	.	.	.	.
2D/	.	.	1A	-go	.	2F/	-ſta	.	.	.	.
.	.	.	.	.	.	.	.	.	4e\	co-	.
2C/	co-	.	.	.	.	2E/	.	.	2c/	.	.
=43-	=43-	=43-	=43-	=43-	=43-	=43-	=43-	=43-	=43-	=43-	=43-
1BB	-li-	.	1G	co-	.	1D	uir-	.	2.d\	.	.
.	.	.	.	.	.	.	.	.	4e\	.	.
0.AA	-tur,	.	1A	-li-	.	2C/	-go	.	2f\	.	.
.	.	.	.	.	.	1C/	co-	.	2.e\	.	.
=44-	=44-	=44-	=44-	=44-	=44-	=44-	=44-	=44-	=44-	=44-	=44-
.	.	.	0A	-tur,	.	.	.	.	.	.	.
.	.	.	.	.	.	.	.	.	4d\	.	.
.	.	.	.	.	.	2D/	-li-	.	1d	.	.
.	.	.	.	.	.	1E	-tur	.	.	.	.
.	.	.	.	.	.	.	.	.	2c/	-ſi-	.
=45-	=45-	=45-	=45-	=45-	=45-	=45-	=45-	=45-	=45-	=45-	=45-
*	*	*	*lig	*	*	*	*	*	*	*	*
2r	.	.	1D	que	.	2F/	.	.	2d\	.	.
2D/	que	.	.	.	.	2A/	.	.	2d\	-tur;	.
1F	do-	.	1A	.	.	2A/	que	.	2.c/	que	.
.	.	.	.	.	.	2F/	do-	.	.	.	.
.	.	.	.	.	.	.	.	.	4d/	.	.
*	*	*	*Xlig	*	*	*	*	*	*	*	*
=46-	=46-	=46-	=46-	=46-	=46-	=46-	=46-	=46-	=46-	=46-	=46-
2C/	-mi-	.	1c	do-	.	2E/	-mi-	.	4e\	do-	.
.	.	.	.	.	.	.	.	.	4f\	.	.
2C/	-no	.	.	.	.	2.e\	-no	.	1g	.	.
*lig	*	*	*	*	*	*	*	*	*	*	*
1D	coe-	.	1A	-mi-	.	.	.	.	.	.	.
*	*	*	*	*	*	*custos:d	*	*	*	*	*
.	.	.	.	.	.	4d\	cae-	.	.	.	.
*	*	*	*	*	*	*xywh-#299:6122,2215,4138,782	*	*	*	*	*
!	!	!	!	!	!	!LO:LB:g=original	!	!	!	!	!
.	.	.	.	.	.	1d\	.	.	2f\	.	.
=47-	=47-	=47-	=47-	=47-	=47-	=47-	=47-	=47-	=47-	=47-	=47-
*	*	*	*custos:A	*	*	*	*	*	*	*	*
1E	.	.	1G	-(n)o	.	.	.	.	2e\	.	.
.	.	.	.	.	.	2c\	-li	.	1g	.	.
*Xlig	*	*	*	*	*	*	*	*	*	*	*
*	*	*	*xywh-#487:5929,2895,4164,747	*	*	*	*	*	*	*	*
!	!	!	!LO:LB:g=original	!	!	!	!	!	!	!	!
1D	-li	.	1A	coe-	.	2.d\	pre-	.	.	.	.
.	.	.	.	.	.	.	.	.	2f\	-mi-	.
.	.	.	.	.	.	4c\	.	.	.	.	.
=48-	=48-	=48-	=48-	=48-	=48-	=48-	=48-	=48-	=48-	=48-	=48-
*	*	*	*	*	*	*	*	*	*custos:g	*	*
2r	.	.	1G	-li	.	4B\	.	.	2g\	-no	.
.	.	.	.	.	.	4A/	.	.	.	.	.
*	*	*	*	*	*	*	*	*	*xywh-#113:6049,2153,4240,841	*	*
!	!	!	!	!	!	!	!	!	!LO:LB:g=original	!	!
1E	pre-	.	.	.	.	2.B\	.	.	1g	pre-	.
.	.	.	1c	pre-	.	.	.	.	.	.	.
.	.	.	.	.	.	4A/	.	.	.	.	.
2C/	-bu-	.	.	.	.	1A\	.	.	2e\	.	.
=49-	=49-	=49-	=49-	=49-	=49-	=49-	=49-	=49-	=49-	=49-	=49-
2D/	.	.	1B	-bu-	.	.	.	.	2f\	-bu-	.
*custos:F	*	*	*	*	*	*	*	*	*	*	*
2E/	.	.	.	.	.	2G/	-bu-	.	2g\	-it	.
*xywh-#663:5882,1444,4300,773	*	*	*	*	*	*	*	*	*	*	*
!LO:LB:g=original	!	!	!	!	!	!	!	!	!	!	!
2F\	-it	.	1A	-it	.	2A/	-it	.	2c/	.	.
2.D/	ho-	.	.	.	.	2.F/	[[ſu]]	.	1f\	.	.
=50-	=50-	=50-	=50-	=50-	=50-	=50-	=50-	=50-	=50-	=50-	=50-
.	.	.	1d	ho-	.	.	.	.	.	.	.
4E\	-ſpi-	.	.	.	.	4G/	ho-	.	.	.	.
4F\	.	.	.	.	.	4A/	.	.	2f\	ho-	.
4G\	.	.	.	.	.	4B\	.	.	.	.	.
1A	.	.	1c	-ſpi-	.	4c\	.	.	2.e\	-ſpi-	.
.	.	.	.	.	.	4d\	.	.	.	.	.
.	.	.	.	.	.	2.e\	.	.	.	.	.
.	.	.	.	.	.	.	.	.	4f\	-ci-	.
=51-	=51-	=51-	=51-	=51-	=51-	=51-	=51-	=51-	=51-	=51-	=51-
2.G\	.	.	1B	-ci-	.	.	.	.	1g	-um,	.
.	.	.	.	.	.	4d\	-ſpi-	.	.	.	.
.	.	.	.	.	.	1d	-ci-	.	.	.	.
4F\	-ti-	.	.	.	.	.	.	.	.	.	.
2E\	-um	.	1G	-u(m)	.	.	.	.	2r	.	.
2E\	.	.	.	.	.	2c\	-um	.	2g\	ſu-	.
=52-	=52-	=52-	=52-	=52-	=52-	=52-	=52-	=52-	=52-	=52-	=52-
2D/	.	.	1A	ſu-	.	1d	.	.	2f\	-i	.
2D/	ſu-	.	.	.	.	.	.	.	2d\	ſanc-	.
2C/	-i	.	1c	-i	.	2r	.	.	2e/	.	.
*	*	*	*	*	*	*custos:B	*	*	*	*	*
2AA/	ſanc-	.	.	.	.	2c\	ſu-	.	2e/	-tiſ-	.
!	!	!	!	!	!	!LO:LB:g=original	!	!	!	!	!
=53-	=53-	=53-	=53-	=53-	=53-	=53-	=53-	=53-	=53-	=53-	=53-
*	*	*	*	*	*	*xywh-#299:6136,2933,4138,834	*	*	*	*	*
2BB/	-tiſ-	.	1d	ſanc-	.	2B\	-i	.	2d/	-si-	.
2BB/	-si-	.	.	.	.	2G/	ſanc-	.	2B/	-mi	.
2AA/	-mi	.	1c	-tiſ-	.	2A/	.	.	2.e\	ſanc-	.
1A\	ſanc-	.	.	.	.	2A/	-tiſ-	.	.	.	.
.	.	.	.	.	.	.	.	.	4e\	-tiſ-	.
=54-	=54-	=54-	=54-	=54-	=54-	=54-	=54-	=54-	=54-	=54-	=54-
*	*	*	*	*	*	*	*	*	*custos:e	*	*
.	.	.	1B	-si-	.	2E/	-si-	.	2e\	-si-	.
*	*	*	*	*	*	*	*	*	*xywh-#113:6065,2899,4199,834	*	*
!	!	!	!	!	!	!	!	!	!LO:LB:g=original	!	!
2G\	.	.	.	.	.	2E/	-mi	.	1e	-mi	.
1F	-tiſ-	.	1A	-mi	.	1A	ſanc-	.	.	.	.
.	.	.	.	.	.	.	.	.	2d\	cor-	.
=55-	=55-	=55-	=55-	=55-	=55-	=55-	=55-	=55-	=55-	=55-	=55-
*custos:AA	*	*	*	*	*	*	*	*	*	*	*
1E	-si-	.	1G	cor-	.	2B\	.	.	1e	-po-	.
.	.	.	.	.	.	2.c\	-tiſ-	.	.	.	.
*xywh-#663:5888,2155,4255,807	*	*	*	*	*	*	*	*	*	*	*
!LO:LB:g=original	!	!	!	!	!	!	!	!	!	!	!
1AA	-mi	.	1A	-po-	.	.	.	.	1e	-r(is)	.
.	.	.	.	.	.	4B\	-si-	.	.	.	.
.	.	.	.	.	.	4A/	-mi	.	.	.	.
.	.	.	.	.	.	4G/	.	.	.	.	.
=56-	=56-	=56-	=56-	=56-	=56-	=56-	=56-	=56-	=56-	=56-	=56-
*	*	*	*custos:A	*	*	*	*	*	*	*	*
2r	.	.	[0Al	-ris	.	2F/	.	.	2r	.	.
*	*ij	*	*	*	*	*	*	*	*	*	*
2D/	ſanc-	.	.	.	.	1F	.	.	2f\	ſanc-	.
2D/	-tiſ-	.	.	.	.	.	.	.	2d\	-tiſ-	.
2C/	-si-	.	.	.	.	2E/	cor-	.	2e\	-si-	.
=57-	=57-	=57-	=57-	=57-	=57-	=57-	=57-	=57-	=57-	=57-	=57-
2F\	-mi	.	0A_	.	.	2D/	.	.	2f\	-mi	.
*	*Xij	*	*	*	*	*	*	*	*	*	*
2E\	cor-	.	.	.	.	2C/	.	.	2c/	cor-	.
1D	-po-	.	.	.	.	1F	-po-	.	1d	-po-	.
=58-	=58-	=58-	=58-	=58-	=58-	=58-	=58-	=58-	=58-	=58-	=58-
*	*	*	*	*	*	*custos:c	*	*	*	*	*
0AAl	-ris	.	0A]	.	.	0El	-ris.	.	0cl	-r(is)	.
!	!	!	!LO:PB:g=original	!	!	!LO:PB:g=original	!	!	!	!	!
=59-	=59-	=59-	=59-	=59-	=59-	=59-	=59-	=59-	=59-	=59-	=59-
*	*	*	*lig	*	*	*	*	*	*	*	*
*	*	*	*xywh-#488:1449,514,4183,930	*	*	*xywh-#300:1402,669,4183,884	*	*	*	*	*
1A	Te	.	1A	Te	.	2.c\	Te	.	1e	Te	.
.	.	.	.	.	.	4B/	.	.	.	.	.
2.D/	coe-	.	1d	.	.	2A/	.	.	2.f\	coe-	.
.	.	.	.	.	.	2B-X/	ce-	.	.	.	.
4C/	.	.	.	.	.	.	.	.	4e\	.	.
*	*	*	*Xlig	*	*	*	*	*	*	*	*
=60-	=60-	=60-	=60-	=60-	=60-	=60-	=60-	=60-	=60-	=60-	=60-
4D/	.	.	1d	coe-	.	2A/	-li	.	2d/	.	.
4E/	.	.	.	.	.	.	.	.	.	.	.
1F	.	.	.	.	.	2.A/	re-	.	4c/	.	.
.	.	.	.	.	.	.	.	.	4B/	.	.
.	.	.	1c	-li	.	.	.	.	4A/	.	.
*	*	*	*	*	*	*	*	*	*custos:c	*	*
.	.	.	.	.	.	4G/	-gi-	.	4B/	.	.
*	*	*	*	*	*	*	*	*	*xywh-#114:1439,665,4136,840	*	*
!	!	!	!	!	!	!	!	!	!LO:PB:g=original	!	!
2E\	.	.	.	.	.	1G/	-na	.	1c\	.	.
=61-	=61-	=61-	=61-	=61-	=61-	=61-	=61-	=61-	=61-	=61-	=61-
*	*	*	*lig	*	*	*	*	*	*	*	*
1D	.	.	1d	re-	.	.	.	.	.	.	.
.	.	.	.	.	.	2F/	.	.	2B/	.	.
*custos:AA	*	*	*	*	*	*	*	*	*	*	*
2C/	-li	.	1e	.	.	2G/	.	.	2c/	-li	.
*xywh-#663:5924,2870,4289,1126	*	*	*	*	*	*	*	*	*	*	*
!LO:LB:g=original	!	!	!	!	!	!	!	!	!	!	!
2.AA/	re-	.	.	.	.	1A\	.	.	2c/	re-	.
*	*	*	*Xlig	*	*	*	*	*	*	*	*
=62-	=62-	=62-	=62-	=62-	=62-	=62-	=62-	=62-	=62-	=62-	=62-
*	*	*	*lig	*	*	*	*	*	*	*	*
.	.	.	1c	-gi-	.	.	.	.	0e	-gi-	.
4BB/	.	.	.	.	.	.	.	.	.	.	.
4C/	.	.	.	.	.	4G/	.	.	.	.	.
4D/	.	.	.	.	.	4F/	.	.	.	.	.
2E\	.	.	1B	.	.	2G/	.	.	.	.	.
2E\	-gi-	.	.	.	.	2G/	.	.	.	.	.
*	*	*	*Xlig	*	*	*	*	*	*	*	*
=63-	=63-	=63-	=63-	=63-	=63-	=63-	=63-	=63-	=63-	=63-	=63-
1F	-na	.	1A	-na	.	2A/	.	.	1c	-na	.
.	.	.	.	.	.	2F/	hec	.	.	.	.
1E	hec	.	1c	hec	.	1G	.	.	2r	.	.
.	.	.	.	.	.	.	.	.	2e\	hec	.
=64-	=64-	=64-	=64-	=64-	=64-	=64-	=64-	=64-	=64-	=64-	=64-
4D/	.	.	1d	ple-	.	2.A/	ple-	.	1f	.	.
4E\	.	.	.	.	.	.	.	.	.	.	.
4F\	.	.	.	.	.	.	.	.	.	.	.
4G\	.	.	.	.	.	4Bny\	.	.	.	.	.
1A	.	.	1c	-bi-	.	4c\	.	.	2e\	ple-	.
*	*	*	*	*	*	*custos:e	*	*	*	*	*
.	.	.	.	.	.	4d\	.	.	.	.	.
*	*	*	*	*	*	*xywh-#300:1420,1437,4101,773	*	*	*	*	*
!	!	!	!	!	!	!LO:LB:g=original	!	!	!	!	!
.	.	.	.	.	.	2.e\	.	.	2c/	-bi-	.
=65-	=65-	=65-	=65-	=65-	=65-	=65-	=65-	=65-	=65-	=65-	=65-
2.G\	ple-	.	1B	-cu-	.	.	.	.	1d	.	.
.	.	.	.	.	.	4d\	.	.	.	.	.
.	.	.	.	.	.	1d	-bi-	.	.	.	.
4F\	.	.	.	.	.	.	.	.	.	.	.
2E\	-bi-	.	1G	-la	.	.	.	.	2e\	.	.
2E\	-cu-	.	.	.	.	2c\	-cu-	.	1g\	.	.
=66-	=66-	=66-	=66-	=66-	=66-	=66-	=66-	=66-	=66-	=66-	=66-
1D	-la	.	1A	pi-	.	2d\	-la	.	.	.	.
.	.	.	.	.	.	2d\	pi-	.	2f\	-cu-	.
2C/	.	.	1c	-is	.	0G	-is	.	1g	-la	.
1c\	pi-	.	.	.	.	.	.	.	.	.	.
=67-	=67-	=67-	=67-	=67-	=67-	=67-	=67-	=67-	=67-	=67-	=67-
.	.	.	1d	con-	.	.	.	.	2r	.	.
2B\	-is	.	.	.	.	.	.	.	1g	pi-	.
*custos:E	*	*	*	*	*	*	*	*	*	*	*
1A	con-	.	1c	-ce-	.	2r	.	.	.	.	.
.	.	.	.	.	.	2A/	con-	.	2f\	-is	.
!LO:PB:g=original	!	!	!	!	!	!	!	!	!	!	!
=68-	=68-	=68-	=68-	=68-	=68-	=68-	=68-	=68-	=68-	=68-	=68-
*	*	*	*custos:A	*	*	*	*	*	*	*	*
*xywh-#664:1366,633,4261,893	*	*	*	*	*	*	*	*	*	*	*
2E/	-ce-	.	1B	-le-	.	2G/	.	.	2e\	con-	.
*	*	*	*	*	*	*	*	*	*custos:c	*	*
2G\	-le-	.	.	.	.	2E/	-ce-	.	2e\	-ce-	.
*	*	*	*xywh-#488:1454,1318,4172,843	*	*	*	*	*	*xywh-#114:1416,1395,4188,840	*	*
!	!	!	!LO:LB:g=original	!	!	!	!	!	!LO:LB:g=original	!	!
2A\	-brat	.	1A	-brat	.	2F/	-le-	.	2c/	-le-	.
2AA/	men-	.	.	.	.	1E/	.	.	2c/	-brat	.
=69-	=69-	=69-	=69-	=69-	=69-	=69-	=69-	=69-	=69-	=69-	=69-
1BB	-ti-	.	1G	men-	.	.	.	.	1d	me(n)-	.
.	.	.	.	.	.	2D/	-brat	.	.	.	.
[1AAl	-bus	.	1A	-ti-	.	1E	me(n)-	.	1c	-ti-	.
=70-	=70-	=70-	=70-	=70-	=70-	=70-	=70-	=70-	=70-	=70-	=70-
0AA]	.	.	0Al	-bus	.	1F	-ti-	.	0c;l	-bus	.
.	.	.	.	.	.	1E	-bus	.	.	.	.
=71-	=71-	=71-	=71-	=71-	=71-	=71-	=71-	=71-	=71-	=71-	=71-
1D	Te	.	0A	Te	.	1d	.	.	1.a	Te	.
1F	li-	.	.	.	.	2.c\	Te	.	.	.	.
.	.	.	.	.	.	.	.	.	4g\	.	.
.	.	.	.	.	.	4d\	li-	.	4f\	.	.
=72-	=72-	=72-	=72-	=72-	=72-	=72-	=72-	=72-	=72-	=72-	=72-
*	*	*	*	*	*	*custos:c	*	*	*	*	*
1C	-bri	.	1c	li-	.	2e\	.	.	1e	li-	.
*	*	*	*	*	*	*xywh-#300:1414,2193,4177,837	*	*	*	*	*
!	!	!	!	!	!	!LO:LB:g=original	!	!	!	!	!
.	.	.	.	.	.	1c	.	.	.	.	.
1r	.	.	1G	-bri	.	.	.	.	1d	-bri	.
.	.	.	.	.	.	2B\	-bri	.	.	.	.
=73-	=73-	=73-	=73-	=73-	=73-	=73-	=73-	=73-	=73-	=73-	=73-
2r	.	.	1A	uir-	.	4c\	uir-	.	2c/	.	.
.	.	.	.	.	.	4B\	.	.	.	.	.
1D	uir-	.	.	.	.	4A/	-go	.	2f\	uir-	.
.	.	.	.	.	.	4G/	.	.	.	.	.
.	.	.	1B	-go	.	2F/	.	.	2d/	-go	.
1E\	-go	.	.	.	.	1G/	.	.	2g\	.	.
=74-	=74-	=74-	=74-	=74-	=74-	=74-	=74-	=74-	=74-	=74-	=74-
.	.	.	1c	con-	.	.	.	.	2e\	con-	.
1F	con-	.	.	.	.	1A	.	.	4a\	-ci-	.
.	.	.	.	.	.	.	.	.	4g\	.	.
.	.	.	1d	-ci-	.	.	.	.	4f\	-nunt	.
.	.	.	.	.	.	.	.	.	4e\	.	.
*	*	*	*	*	*	*	*	*	*custos:g	*	*
1G\	-ci-	.	.	.	.	1B\	.	.	2d/	.	.
!	!	!	!	!	!	!	!	!	!LO:LB:g=original	!	!
=75-	=75-	=75-	=75-	=75-	=75-	=75-	=75-	=75-	=75-	=75-	=75-
*	*	*	*	*	*	*	*	*	*xywh-#114:1416,2131,4159,782	*	*
.	.	.	1d	-nu(n)t	.	.	.	.	2.g\	pro-	.
1G	-nu(n)t	.	.	.	.	1B	con-	.	.	.	.
.	.	.	.	.	.	.	.	.	4f\	.	.
.	.	.	1e	pro-	.	.	.	.	2e\	-phe-	.
1A\	p(ro)-	.	.	.	.	1c\	-ci-	.	2c/	.	.
=76-	=76-	=76-	=76-	=76-	=76-	=76-	=76-	=76-	=76-	=76-	=76-
*	*	*	*custos:d	*	*	*	*	*	*	*	*
.	.	.	1c	-phe-	.	.	.	.	1f	-ta-	.
*custos:G	*	*	*	*	*	*	*	*	*	*	*
1F	-phe-	.	.	.	.	1A	-nu(n)t	.	.	.	.
*	*	*	*xywh-#488:1472,2051,4131,797	*	*	*	*	*	*	*	*
!	!	!	!LO:LB:g=original	!	!	!	!	!	!	!	!
.	.	.	1d	-ta-	.	.	.	.	1d	-ru(m)	.
*xywh-#664:1383,1435,4226,796	*	*	*	*	*	*	*	*	*	*	*
!LO:LB:g=original	!	!	!	!	!	!	!	!	!	!	!
2G\	-ta-	.	.	.	.	2B\	pro-	.	.	.	.
=77-	=77-	=77-	=77-	=77-	=77-	=77-	=77-	=77-	=77-	=77-	=77-
4F\	.	.	2A/	-rum	.	2c\	-phe-	.	2r	.	.
4E\	.	.	.	.	.	.	.	.	.	.	.
2F\	.	.	2A/	cho-	.	2d\	.	.	1d	Cho-	.
2G\	.	.	1B	-rus	.	2B\	-ta-	.	.	.	.
2E\	-rum,	.	.	.	.	4e\	-rum,	.	1e\	.	.
.	.	.	.	.	.	4d\	.	.	.	.	.
=78-	=78-	=78-	=78-	=78-	=78-	=78-	=78-	=78-	=78-	=78-	=78-
4A\	Cho-	.	1c	iu-	.	4c\	cho-	.	.	.	.
4G\	.	.	.	.	.	4B\	.	.	.	.	.
4F\	.	.	.	.	.	2A/	-rus	.	1f	-rus	.
4E\	.	.	.	.	.	.	.	.	.	.	.
2D/	-rus	.	1d	-bi-	.	2A/	iu-	.	.	.	.
*	*	*	*	*	*	*custos:B	*	*	*	*	*
2G\	iu-	.	.	.	.	2B/	-bi-	.	1g\	iu-	.
!	!	!	!	!	!	!LO:LB:g=original	!	!	!	!	!
=79-	=79-	=79-	=79-	=79-	=79-	=79-	=79-	=79-	=79-	=79-	=79-
*	*	*	*	*	*	*xywh-#300:1474,2916,4142,855	*	*	*	*	*
2G\	-bi-	.	1d	-lat	.	2B\	-lat	.	.	.	.
2G\	-lat	.	.	.	.	2B\	ſa-	.	1g	-bi-	.
2C/	ſa-	.	1e	ſa-	.	2c\	.	.	.	.	.
2C/	-cer-	.	.	.	.	2c\	-cer-	.	2.a\	-lat	.
=80-	=80-	=80-	=80-	=80-	=80-	=80-	=80-	=80-	=80-	=80-	=80-
1F	-do-	.	1c	-cer-	.	1A	-do-	.	.	.	.
.	.	.	.	.	.	.	.	.	4g\	ſa-	.
.	.	.	.	.	.	.	.	.	4f\	.	.
.	.	.	.	.	.	.	.	.	4e\	.	.
1D	-tu(m),	.	1d	-do-	.	2A/	-tum,	.	2f\	.	.
.	.	.	.	.	.	1d\	a-	.	2d/	-cer-	.
=81-	=81-	=81-	=81-	=81-	=81-	=81-	=81-	=81-	=81-	=81-	=81-
1r	.	.	1A	-tum	.	.	.	.	1e	-do-	.
.	.	.	.	.	.	2c\	-po-	.	.	.	.
1G	a-	.	1d	a-	.	1B	-ſto-	.	1d	-tu(m),	.
=82-	=82-	=82-	=82-	=82-	=82-	=82-	=82-	=82-	=82-	=82-	=82-
2A\	-po-	.	1c	-po-	.	2A/	-li	.	2r	.	.
*custos:G	*	*	*	*	*	*	*	*	*	*	*
2F\	-ſto-	.	.	.	.	2A/	chri-	.	1f	a-	.
*xywh-#664:1394,2186,4192,841	*	*	*	*	*	*	*	*	*	*	*
!LO:LB:g=original	!	!	!	!	!	!	!	!	!	!	!
1G	-li	.	1B	-ſto-	.	2d\	-(sti)-	.	.	.	.
*	*	*	*	*	*	*	*	*	*custos:d	*	*
.	.	.	.	.	.	1B\	-q(ue)	.	2e\	-po-	.
!	!	!	!	!	!	!	!	!	!LO:LB:g=original	!	!
=83-	=83-	=83-	=83-	=83-	=83-	=83-	=83-	=83-	=83-	=83-	=83-
*	*	*	*	*	*	*	*	*	*xywh-#114:1424,2876,4154,1193	*	*
2GG/	chri-	.	1G	-li	.	.	.	.	2d/	-ſto-	.
2C/	-(st)i	.	.	.	.	2.e\	mar-	.	2c/	-li	.
*	*	*	*custos:c	*	*	*	*	*	*	*	*
2AA/	q(uae)	.	1A	chri-	.	.	.	.	2c/	chri-	.
.	.	.	.	.	.	4d\	.	.	.	.	.
2.A\	mar-	.	.	.	.	4c\	-ti-	.	2e\	.	.
.	.	.	.	.	.	4B\	-res	.	.	.	.
!	!	!	!LO:LB:g=original	!	!	!	!	!	!	!	!
=84-	=84-	=84-	=84-	=84-	=84-	=84-	=84-	=84-	=84-	=84-	=84-
*	*	*	*xywh-#488:1458,2739,4149,1057	*	*	*	*	*	*	*	*
.	.	.	1c	-ſti	.	1A	.	.	2e\	-ſti-	.
4G\	.	.	.	.	.	.	.	.	.	.	.
4F\	.	.	.	.	.	.	.	.	1f	-q(ue)	.
4E\	.	.	.	.	.	.	.	.	.	.	.
2D/	.	.	1d	q(ue)	.	2r	.	.	.	.	.
2D/	-ti-	.	.	.	.	2A/	mar-	.	2f\	mar-	.
=85-	=85-	=85-	=85-	=85-	=85-	=85-	=85-	=85-	=85-	=85-	=85-
*lig	*	*	*	*	*	*	*	*	*	*	*
1AA	-res	.	1c	mar-	.	2A/	-ti-	.	2e\	.	.
.	.	.	.	.	.	1A	-res	.	2.f\	-ti-	.
1E	.	.	1B	-ti-	.	.	.	.	.	.	.
.	.	.	.	.	.	.	.	.	4e\	-res	.
*	*	*	*	*	*	*custos:A	*	*	*	*	*
.	.	.	.	.	.	2G/	.	.	1e\	pre-	.
*Xlig	*	*	*	*	*	*	*	*	*	*	*
!	!	!	!	!	!	!LO:PB:g=original	!	!	!	!	!
=86-	=86-	=86-	=86-	=86-	=86-	=86-	=86-	=86-	=86-	=86-	=86-
*	*	*	*	*	*	*xywh-#300:6136,664,4177,937	*	*	*	*	*
1F	pre-	.	1A	-res	.	2.A/	.	.	.	.	.
.	.	.	.	.	.	.	.	.	2d\	-di-	.
.	.	.	.	.	.	4B\	pre-	.	.	.	.
1E	-di-	.	1G	pre-	.	2c\	-di-	.	[1el	-ca(n)t	.
.	.	.	.	.	.	2B\	.	.	.	.	.
=87-	=87-	=87-	=87-	=87-	=87-	=87-	=87-	=87-	=87-	=87-	=87-
0AAl	-ca(n)t,	.	1A	-di-	.	0cl	-cant;	.	0e]	.	.
.	.	.	1Al	-ca(n)t	.	.	.	.	.	.	.
=88-	=88-	=88-	=88-	=88-	=88-	=88-	=88-	=88-	=88-	=88-	=88-
1C	Ec-	Ti-	1c	Ec-	Ti-	1G	Ec-	Ti-	1r	.	.
2.F\	-cle-	-bi	1c	-cle-	-bi	2A/	-cle-	-bi	2r	.	.
.	.	.	.	.	.	1c\	-ſi-	ſu-	2c/	Ec-	Ti-
4E\	.	.	.	.	.	.	.	.	.	.	.
=89-	=89-	=89-	=89-	=89-	=89-	=89-	=89-	=89-	=89-	=89-	=89-
*	*	*	*lig	*	*	*	*	*	*	*	*
2D/	.	.	1d	.	.	.	.	.	1f	-cle-	-bi
*custos:C	*	*	*	*	*	*	*	*	*	*	*
2D/	-ſi-	ſu-	.	.	.	2B/	-a	-am	.	.	.
*xywh-#664:1411,2940,4329,989	*	*	*	*	*	*	*	*	*	*	*
!LO:LB:g=original	!	!	!	!	!	!	!	!	!	!	!
1C	-a	-am	1e	.	.	1c	.	.	2e\	-ſi-	ſu-
.	.	.	.	.	.	.	.	.	1c\	-a	.
*	*	*	*Xlig	*	*	*	*	*	*	*	*
=90-	=90-	=90-	=90-	=90-	=90-	=90-	=90-	=90-	=90-	=90-	=90-
1G	er-	.	1d	-ſi-	ſu-	2r	.	.	.	.	.
*	*	*	*	*	*	*	*	*	*custos:c	*	*
.	.	.	.	.	.	2G/	er-	ma-	2B/	.	.
*	*	*	*	*	*	*	*	*	*xywh-#114:6125,636,4136,909	*	*
!	!	!	!	!	!	!	!	!	!LO:PB:g=original	!	!
2C/	-go	ma-	1e	-a	-am	2G/	-go	-ni-	1c	.	-am
1c\	cunc-	-ni-	.	.	.	2C/	cu(n)c-	-feſ-	.	.	.
=91-	=91-	=91-	=91-	=91-	=91-	=91-	=91-	=91-	=91-	=91-	=91-
*	*	*	*custos:e	*	*	*	*	*	*	*	*
.	.	.	1d	er-	ma-	1G	-ta	-tat	2r	.	.
2B\	.	-feſ-	.	.	.	.	.	.	1d	er-	ma-
*	*	*	*xywh-#488:5981,601,4189,901	*	*	*	*	*	*	*	*
!	!	!	!LO:PB:g=original	!	!	!	!	!	!	!	!
1A	-cta	-tat,	1e	-go	-ni-	1r	.	.	.	.	.
.	.	.	.	.	.	.	.	.	2c/	-go	-ni-
=92-	=92-	=92-	=92-	=92-	=92-	=92-	=92-	=92-	=92-	=92-	=92-
1D	.	.	1d	cunc-	-feſ-	2r	.	.	2f\	cunc-	-fe-
*	*	*	*	*	*	*	*ij	*	*	*	*
.	.	.	.	.	.	1d	er-	de-	4e\	.	.
.	.	.	.	.	.	.	.	.	4d\	.	.
1r	.	.	1A	-ta	-tat	.	.	.	1e	-ta	.
.	.	.	.	.	.	2c\	-go	-uo-	.	.	.
=93-	=93-	=93-	=93-	=93-	=93-	=93-	=93-	=93-	=93-	=93-	=93-
1D	te	de-	1d	te	de-	2d\	cu(n)c-	-ci-	2d/	.	-ſtat
*	*	*	*	*	*	*custos:A	*	*	*	*	*
.	.	.	.	.	.	2A/	.	-o-	2f\	te	de-
*	*	*	*	*	*	*xywh-#300:6119,1484,4200,691	*	*	*	*	*
!	!	!	!	!	!	!LO:LB:g=original	!	!	!	!	!
2AA/	cor-	-uo-	1c	cor-	-uo-	1A	-ta	-nem	2e\	cor-	-vo
*	*	*	*	*	*	*	*Xij	*	*	*	*
2AA/	-di-	-ci-	.	.	.	.	.	.	2e\	-di-	-ti-
=94-	=94-	=94-	=94-	=94-	=94-	=94-	=94-	=94-	=94-	=94-	=94-
0E	-bus,	-o-	1B	-di-	-ti-	2.G/	te	te	1e	-bus	-o-
.	.	.	.	.	.	4A/	.	.	.	.	.
.	.	.	1G	-bus	-o-	2B\	cor-	ſup-	1g	.	-ne(m)
.	.	.	.	.	.	2c\	-di-	-pli-	.	.	.
=95-	=95-	=95-	=95-	=95-	=95-	=95-	=95-	=95-	=95-	=95-	=95-
1D	te-	-nem	1A	te-	-nem	1d	-bus	-ci	2f\	te-	pre-
.	.	.	.	.	.	.	.	.	2d/	-q(ue)	-ca-
2C/	-q(ue)	te	1c	-q(ue)	.	2r	.	.	2e\	car-	-tu
2AA/	car-	ſup-	.	.	.	2c\	te-	im-	2e\	-mi-	te
=96-	=96-	=96-	=96-	=96-	=96-	=96-	=96-	=96-	=96-	=96-	=96-
2BB/	-mi-	.	1d	car-	im-	2B\	-q(ue)	.	2d\	-ni-	ſup-
2BB/	-ni-	-pli-	.	.	.	2G/	car-	-plo-	2B/	-bus	-pli-
*	*	*	*	*	*	*	*	*	*custos:e	*	*
2AA/	-bus	-ci	1c	-mi-	-plo-	2A/	.	.	2e\	.	-ci
*	*	*	*	*	*	*	*	*	*xywh-#114:6067,1436,4159,753	*	*
!	!	!	!	!	!	!	!	!	!LO:LB:g=original	!	!
1A\	ve-	im-	.	.	.	2A/	-mi-	-rans	2e\	ve-	im
=97-	=97-	=97-	=97-	=97-	=97-	=97-	=97-	=97-	=97-	=97-	=97-
.	.	.	1B	-ni-	-rans	2E/	-ni-	Ma-	1e	-ne-	plorans
2G\	.	-plo-	.	.	.	2e\	-bus	-ri-	.	.	.
*custos:D	*	*	*	*	*	*	*	*	*	*	*
2F\	.	-ra(n)s	1A	-bus	Ma-	2c\	.	-a	1f	-rans,	Ma-
!LO:PB:g=original	!	!	!	!	!	!	!	!	!	!	!
*	*	*	*	*	*	*	*	*ij	*	*	*
*xywh-#664:5826,641,4175,802	*	*	*	*	*	*	*	*	*	*	*
2D/	-ne-	Ma-	.	.	.	2d\	ve-	Ma-	.	.	.
=98-	=98-	=98-	=98-	=98-	=98-	=98-	=98-	=98-	=98-	=98-	=98-
1E	-rans	-ri-	1G	ce-	.	1B	-ne-	-ri-	1e	.	-ri-
*	*	*	*	*	*	*custos:c	*	*	*	*	*
[1AAl	.	-a	1A	-le-	-ri-	[1cl	-ra(n)s	-a	[1el	.	-a
*	*	*	*	*	*	*	*	*Xij	*	*	*
=99-	=99-	=99-	=99-	=99-	=99-	=99-	=99-	=99-	=99-	=99-	=99-
*	*	*	*custos:A	*	*	*	*	*	*	*	*
0AA]	.	.	0A;l	-brat	-a	0c]	.	.	0e]	.	.
!	!	!	!LO:LB:g=original	!	!	!LO:LB:g=original	!	!	!	!	!
=100-	=100-	=100-	=100-	=100-	=100-	=100-	=100-	=100-	=100-	=100-	=100-
*	*	*	*xywh-#488:5964,1363,4235,780	*	*	*	*	*	*	*	*
*	*	*	*	*	*	*xywh-#300:6136,2146,4165,849	*	*	*	*	*
1A	Vt	.	1A	Vt	.	1c	Vt	.	1e	Vt	.
1F	ſi-	.	1c	ſi-	.	1A	ſi-	.	1f	ſi-	.
=101-	=101-	=101-	=101-	=101-	=101-	=101-	=101-	=101-	=101-	=101-	=101-
2G\	-bi	.	1B	-bi	.	2B/	-bi	.	2d\	-bi	.
4F\	.	.	.	.	.	2G/	au-	.	1g	.	.
4E\	.	.	.	.	.	.	.	.	.	.	.
1D	.	.	1d	au-	.	1A	-xi-	.	.	.	.
.	.	.	.	.	.	.	.	.	2f\	au-	.
=102-	=102-	=102-	=102-	=102-	=102-	=102-	=102-	=102-	=102-	=102-	=102-
1C	au-	.	1e	-xi-	.	2.c\	-li-	.	2.g\	-xi-	.
.	.	.	.	.	.	4B/	-um	.	8f\L	-li-	.
.	.	.	.	.	.	.	.	.	8e\J	.	.
2.F\	-xi-	.	1c	-li-	.	4A/	.	.	1f	-um	.
.	.	.	.	.	.	4G/	.	.	.	.	.
.	.	.	.	.	.	2A/	.	.	.	.	.
4F\	-li-	.	.	.	.	.	.	.	.	.	.
=103-	=103-	=103-	=103-	=103-	=103-	=103-	=103-	=103-	=103-	=103-	=103-
1C	-um	.	1c	-um	.	2G/	.	.	1e	.	.
.	.	.	.	.	.	1G	cir-	.	.	.	.
1D	cir-	.	1A	cir-	.	.	.	.	2r	.	.
.	.	.	.	.	.	2F/	.	.	1f\	Cir-	.
=104-	=104-	=104-	=104-	=104-	=104-	=104-	=104-	=104-	=104-	=104-	=104-
1C	.	.	1c	-ca	.	2.G/	-ca	.	.	.	.
*	*	*	*	*	*	*	*	*	*custos:d	*	*
.	.	.	.	.	.	.	.	.	2e\	-ca	.
.	.	.	.	.	.	4A/	Chri-	.	.	.	.
*	*	*	*	*	*	*	*	*	*xywh-#114:6090,2119,4165,869	*	*
!	!	!	!	!	!	!	!	!	!LO:LB:g=original	!	!
2.G\	-ca	.	1B	Chri-	.	4B/	.	.	2.d\	Chri-	.
.	.	.	.	.	.	4c\	.	.	.	.	.
.	.	.	.	.	.	1d\	.	.	.	.	.
8F\L	Chri-	.	.	.	.	.	.	.	4e\	.	.
*custos:D	*	*	*	*	*	*	*	*	*	*	*
8E\J	.	.	.	.	.	.	.	.	.	.	.
!LO:LB:g=original	!	!	!	!	!	!	!	!	!	!	!
=105-	=105-	=105-	=105-	=105-	=105-	=105-	=105-	=105-	=105-	=105-	=105-
*xywh-#664:5843,1397,4221,864	*	*	*	*	*	*	*	*	*	*	*
1D	.	.	1d	-ſtu(m)	.	.	.	.	2f\	.	.
.	.	.	.	.	.	1A	.	.	4e\	.	.
.	.	.	.	.	.	.	.	.	4d\	.	.
2AA/	-ſtum	.	1e	do-	.	.	.	.	2c/	.	.
1C/	.	.	.	.	.	4G/	.	.	2c/	-ſtum	.
.	.	.	.	.	.	4F/	.	.	.	.	.
=106-	=106-	=106-	=106-	=106-	=106-	=106-	=106-	=106-	=106-	=106-	=106-
*	*	*	*lig	*	*	*	*	*	*	*	*
*	*	*	*	*	*	*custos:G	*	*	*	*	*
.	.	.	1c	-mi-	.	2G/	-ſtum	.	1e	do-	.
*	*	*	*	*	*	*xywh-#300:6093,2911,4200,849	*	*	*	*	*
!	!	!	!	!	!	!LO:LB:g=original	!	!	!	!	!
2C/	do-	.	.	.	.	1G	do-	.	.	.	.
4GG/	-mi-	.	1B	.	.	.	.	.	1d	-mi-	.
4AA/	.	.	.	.	.	.	.	.	.	.	.
4BB/	-num	.	.	.	.	2G/	-mi-	.	.	.	.
4C/	.	.	.	.	.	.	.	.	.	.	.
*	*	*	*Xlig	*	*	*	*	*	*	*	*
=107-	=107-	=107-	=107-	=107-	=107-	=107-	=107-	=107-	=107-	=107-	=107-
1D	.	.	1A	-nu(m)	.	1F	-nu(m)	.	1d	-nu(m)	.
1GG	eſ-	.	1B	eſ-	.	1G	.	.	1d	eſ-	.
=108-	=108-	=108-	=108-	=108-	=108-	=108-	=108-	=108-	=108-	=108-	=108-
*	*	*	*custos:G	*	*	*	*	*	*	*	*
2GG/	-se	.	1B	-se	.	2G/	eſ-	.	2d/	-se	.
2GG/	di-	.	.	.	.	2G/	-se	.	2d/	di-	.
*	*	*	*xywh-#488:5952,2126,2138,809	*	*	*	*	*	*	*	*
!	!	!	!LO:LB:g=original	!	!	!	!	!	!	!	!
1C	-gne-	.	1G	di-	.	2.E/	di-	.	1e	-gne-	.
.	.	.	.	.	.	4F/	-gne-	.	.	.	.
=109-	=109-	=109-	=109-	=109-	=109-	=109-	=109-	=109-	=109-	=109-	=109-
2GG/	-ris	.	1B	-gne-	.	1G	-rie	.	1d	-ris	.
2G\	per	.	.	.	.	.	.	.	.	.	.
2F\	ae-	.	1d	-ris	.	2.A/	.	.	2r	.	.
2D\	.	.	.	.	.	.	.	.	2f\	per	.
.	.	.	.	.	.	4B\	.	.	.	.	.
=110-	=110-	=110-	=110-	=110-	=110-	=110-	=110-	=110-	=110-	=110-	=110-
2E\	.	.	1c	per	.	2c\	.	.	2g\	.	.
2F\	.	.	.	.	.	2A/	.	.	2a\	.	.
*	*	*	*lig	*	*	*	*	*	*	*	*
*	*	*	*	*	*	*	*	*	*custos:g	*	*
1G	.	.	1B	ae-	.	2B\	.	.	2d/	.	.
*	*	*	*	*	*	*	*	*	*xywh-#114:6121,2852,3232,979	*	*
!	!	!	!	!	!	!	!	!	!LO:LB:g=original	!	!
.	.	.	.	.	.	1G/	per	.	2.g\	ae-	.
=111-	=111-	=111-	=111-	=111-	=111-	=111-	=111-	=111-	=111-	=111-	=111-
1C	-uum	.	1c	.	.	.	.	.	.	.	.
.	.	.	.	.	.	.	.	.	4f\	.	.
.	.	.	.	.	.	2.c\	.	.	4e\	.	.
.	.	.	.	.	.	.	.	.	4d\	.	.
*	*	*	*Xlig	*	*	*	*	*	*	*	*
*custos:F	*	*	*	*	*	*	*	*	*	*	*
2r	.	.	[1A;l	-uum	.	.	.	.	1c	.	.
.	.	.	.	.	.	4B\	e-	.	.	.	.
*xywh-#664:5837,2217,2070,699	*	*	*	*	*	*	*	*	*	*	*
!LO:LB:g=original	!	!	!	!	!	!	!	!	!	!	!
2.F\	per	.	.	.	.	4A/	.	.	.	.	.
.	.	.	.	.	.	4G/	.	.	.	.	.
=112-	=112-	=112-	=112-	=112-	=112-	=112-	=112-	=112-	=112-	=112-	=112-
.	.	.	0A_	.	.	2F/	-­-	.	1.d	.	.
4E\	.	.	.	.	.	.	.	.	.	.	.
4D/	.	.	.	.	.	1f	.	.	.	.	.
4C/	.	.	.	.	.	.	.	.	.	.	.
2D/	.	.	.	.	.	.	.	.	.	.	.
2C/	ae-	.	.	.	.	2e\	.	.	2e\	.	.
=113-	=113-	=113-	=113-	=113-	=113-	=113-	=113-	=113-	=113-	=113-	=113-
1D	.	.	0A]	.	.	1d	.	.	1f	.	.
1AAl	-uum	.	.	.	.	1cl	-uum	.	1e;l	-uum	.
==	==	==	==	==	==	==	==	==	==	==	==
*-	*-	*-	*-	*-	*-	*-	*-	*-	*-	*-	*-
!!!system-decoration: [(s1,s2,s3,s4)]
!!!RDF**kern: l = terminal long
!!!ENC: Mateusz Solarz
!!!END: 2022-02-25
!!!ENC: Marta Lawrence
!!!END: 2022-03-17
!!!YEC: Copyright 2022 Narodowy Instytut Fryderyka Chopina (https://polishscores.org)
!!!YEM: License CC-BY-4.0 (https://creativecommons.org/licenses/by/4.0)
!!!IIIF: https://repozytorium.nifc.pl/islandora/object/pl-kk%3A1/datastream/IIIF/view
!!!ENC-iiif: Elżbieta Cabała
!!!END-iiif: 2022-09-03
